X:9
T: Con Cassidy's/ To Limerick We Go
T:Con Cassidy's
R: jig
M: 6/8
L: 1/8
K: Gmaj
|B3 BAB|d2c A2F|G3GFG|BAG A2B|
c3 cBc|e2d B2c|ded cAF|1~G3 G2A:|2~G3 G2g:|
|:f2d def|gfg a2g|f2d ded|c2A A2g|
f2d def|gfg a2g|fed ed^c|1d3 d2g:|2ded cdc||
T: To Limerick We Go
R: slip jig
M: 9/8
L: 1/8
K: Gmaj
|:BdB AGA BGE|BdB AGB A3|BdB AGA BGE|cBA BGE D3:|
|:DEG A2A A2B|AGE G2G G2A|DEG A2A A2B|B2A AGE D3:|

